X:374
T:Hunting the Goose
M:C|
C:© Paul Gitlitz,  2014
K:A
"A"Acea "F#m"fecB|"A"Acea "F#m"fecB|"A"Acea "F#m"fece|"Bm"f2B2 BdcB|!
"A"Acea "F#m"fecB|"A"Acea "F#m"fecB|"A"Acea "Bm"fdBd|"A"c2A2 A3E:|!
|:"F#m"[F2A2][F2A2][F2A2]ED|"A"[E2A2][E2A2][E2A2]DC|"Bm"B,CDF "E"EDCB,|"A"A,CEF "E"E2DE|!
"F#m"[F2A2][F2A2][F2A2]ED|"A"[E2A2][E2A2][E2A2]DC|"Bm"B,A,B,C "E"ECB,C|1"A"A,4z A,CE:|2"A"A,8|]
